src/assets/images/1inch-logo.svg

<svg width="24" height="24" viewBox="0 0 24 24" fill="none" xmlns="http://www.w3.org/2000/svg">
<path d="M5.96853 13.0949L6.56853 8.57615L1.35602 4.95742L6.11853 6.56992L7.2435 4.84492L11.3498 2.29492L20.406 7.28244L20.8748 14.8949L16.8435 20.5012L13.656 20.9887L15.306 17.9699V15.0637L14.106 12.7949L12.8873 11.9887L11.0122 13.9199V15.9637L9.54979 17.3324L7.6935 17.5574L6.86853 18.0262L5.51852 17.5949L4.95602 15.5699L5.96853 14.1449V13.0949Z" fill="white"/>
<path d="M14.2935 4.91873C13.2998 4.71247 12.2123 4.76873 12.2123 4.76873C12.2123 4.76873 11.856 6.41874 9.64349 6.84999C9.66229 6.84999 12.5685 7.84371 14.2935 4.91873Z" fill="#94A6C3"/>
<path d="M15.1935 19.8813C16.3935 18.9438 17.2935 17.65 17.706 16.1875C17.7247 16.1313 17.8935 16.0375 18.006 15.9625C18.1935 15.85 18.381 15.7562 18.4185 15.6062C18.4935 15.175 18.531 14.725 18.531 14.275C18.531 14.1062 18.3622 13.9375 18.1935 13.7688C18.0622 13.6562 17.931 13.525 17.931 13.4313C17.7435 11.725 16.956 10.1313 15.6998 8.96875L15.5685 9.10001C16.7872 10.2438 17.5747 11.8 17.7435 13.45C17.7622 13.6 17.9122 13.75 18.0622 13.9C18.1935 14.0125 18.3435 14.1813 18.3435 14.2562C18.3435 14.6875 18.306 15.1187 18.231 15.55C18.2122 15.625 18.0435 15.7 17.9122 15.775C17.7247 15.8687 17.556 15.9625 17.5185 16.1125C17.0685 17.7062 16.0372 19.0938 14.6685 19.9938C14.9122 19.4688 15.681 17.7625 16.0935 16.9L16.0185 14.125L13.6372 11.8188L12.2872 12.0062L10.806 14.4062C10.806 14.4062 11.4998 15.2875 10.5247 16.3187C9.5685 17.3313 8.8185 17.5562 8.8185 17.5562L8.12473 17.1813C8.33096 16.9187 8.74347 16.525 9.06221 16.2625C9.60598 15.8125 10.1498 15.775 10.1498 15.2875C10.1685 14.275 9.08096 14.5562 9.08096 14.5562L8.68724 14.9313L8.5185 16.3187L7.69347 17.35L7.59976 17.3313L6.24976 17.0313C6.24976 17.0313 7.07473 16.6 7.20598 16.1125C7.33724 15.6438 6.94347 14.0875 6.92473 13.9938C6.94347 14.0125 7.3185 14.3313 7.48724 14.8562C7.78724 14.0313 8.18096 13.2438 8.29347 13.1688C8.40598 13.0938 9.92473 12.2875 9.92473 12.2875L9.4185 13.6188L9.79347 13.4125L10.6935 11.2C10.6935 11.2 11.5747 10.7688 12.231 10.7688C13.4122 10.75 15.156 9.30624 14.3685 6.71875C14.5935 6.81252 18.4935 8.76252 19.1685 12.5875C19.6747 15.5313 18.006 18.2875 15.1935 19.8813Z" fill="#94A6C3"/>
<path d="M10.731 5.33242C11.1623 4.82617 10.9935 4.07617 10.9935 4.07617L9.73724 5.93243C9.71849 5.93243 10.1872 5.95117 10.731 5.33242Z" fill="#1B314F"/>
<path d="M6.51222 15.4746L6.66222 14.7246C6.66222 14.7246 6.04348 15.8121 5.98725 15.9621C5.93102 16.1309 6.02473 16.4309 6.26851 16.4121C6.51222 16.3934 6.81222 16.0371 6.81222 15.7746C6.81222 15.4371 6.51222 15.4746 6.51222 15.4746Z" fill="#1B314F"/>
<path d="M17.6498 3.55041C17.6498 3.55041 18.5873 3.58791 19.5622 3.70041C17.3685 1.97541 15.2873 1.46916 13.5998 1.46916C11.2747 1.46916 9.69977 2.42541 9.606 2.48165L10.3373 1.31916C10.3373 1.31916 7.41223 1.03791 6.38097 4.13165C6.11851 3.47541 5.87474 2.51916 5.87474 2.51916C5.87474 2.51916 4.356 3.85041 5.0685 6.0629C3.32475 5.42541 0.831 4.54416 0.737251 4.52541C0.606 4.50665 0.5685 4.56291 0.5685 4.56291C0.5685 4.56291 0.531 4.61916 0.643503 4.71291C0.849748 4.88165 4.78725 7.78793 5.64975 8.35039C5.46225 9.02541 5.46225 9.34416 5.64975 9.6629C5.91223 10.0942 5.93097 10.3191 5.89349 10.6379C5.856 10.9567 5.5185 13.7129 5.4435 14.0504C5.3685 14.3879 4.581 15.5879 4.6185 15.9442C4.656 16.3004 5.1435 17.8191 5.57475 17.9879C5.89349 18.1004 6.68103 18.3442 7.206 18.3442C7.39349 18.3442 7.56223 18.3067 7.63726 18.2316C7.956 17.9504 8.04977 17.8942 8.27474 17.8942C8.29349 17.8942 8.31223 17.8942 8.33103 17.8942C8.42474 17.8942 8.53726 17.9129 8.66851 17.9129C8.96851 17.9129 9.36223 17.8567 9.64349 17.5942C10.056 17.1816 10.7685 16.6191 10.9935 16.3567C11.2747 16.0004 11.4247 15.5129 11.3498 15.0254C11.2935 14.5754 11.5373 14.1816 11.8185 13.7879C12.1747 13.3191 12.831 12.4754 12.831 12.4754C14.1247 13.4504 14.931 14.9316 14.931 16.5816C14.931 19.5067 12.381 21.8691 9.23103 21.8691C8.74349 21.8691 8.27474 21.8129 7.806 21.7004C9.24977 22.2067 10.4685 22.3754 11.4622 22.3754C13.581 22.3754 14.706 21.6067 14.706 21.6067C14.706 21.6067 14.3122 22.1129 13.6747 22.6942C13.6935 22.6942 13.6935 22.6942 13.6935 22.6942C17.1998 22.2067 18.906 19.3191 18.906 19.3191C18.906 19.3191 18.7747 20.2567 18.606 20.8942C23.2747 17.3879 22.4873 13.0004 22.4685 12.8504C22.506 12.9067 22.9747 13.4691 23.2185 13.7691C23.9685 6.04416 17.6498 3.55041 17.6498 3.55041ZM10.4685 15.8879C10.3935 15.9816 10.0747 16.2629 9.84977 16.4691C9.62474 16.6754 9.38103 16.8816 9.19349 17.0691C9.11851 17.1442 8.96851 17.1816 8.74349 17.1816C8.66851 17.1816 8.59349 17.1816 8.53726 17.1816C8.49977 17.1816 8.46223 17.1816 8.42474 17.1816C8.38726 17.1816 8.36851 17.1816 8.34977 17.1816C8.29349 17.1816 8.23726 17.1816 8.18097 17.1816C8.46223 16.8067 9.28726 15.9442 9.56851 15.7567C9.906 15.5316 10.0747 15.3067 9.86851 14.9129C9.66223 14.5191 9.11851 14.6129 9.11851 14.6129C9.11851 14.6129 9.43726 14.4816 9.71851 14.4816C9.36223 14.3879 8.91223 14.4816 8.706 14.6879C8.48103 14.8942 8.51851 15.6254 8.42474 16.0942C8.33103 16.5816 8.01223 16.8254 7.52474 17.2754C7.26223 17.5191 7.07474 17.5942 6.92474 17.5942C6.606 17.5379 6.23097 17.4442 5.96851 17.3504C5.78097 17.1067 5.49975 16.3004 5.42475 15.9629C5.481 15.7754 5.706 15.3816 5.81851 15.1567C6.04349 14.7254 6.17474 14.4816 6.21223 14.2567C6.28726 13.9379 6.53103 11.9691 6.62474 11.1442C6.86851 11.4629 7.206 11.9879 7.13103 12.3254C7.67474 11.5567 7.28103 10.8067 7.09349 10.5067C6.92474 10.2067 6.69977 9.60667 6.88726 8.96913C7.07474 8.33164 7.74977 6.56913 7.74977 6.56913C7.74977 6.56913 7.97474 6.9629 8.29349 6.88793C8.61223 6.8129 11.181 2.95041 11.181 2.95041C11.181 2.95041 11.8747 4.46916 11.1435 5.57541C10.3935 6.68164 9.66223 6.88793 9.66223 6.88793C9.66223 6.88793 10.6935 7.07541 11.6498 6.38164C12.0435 7.30039 12.4185 8.25667 12.4373 8.38793C12.381 8.51913 11.631 10.3191 11.556 10.4316C11.5185 10.4691 11.256 10.5442 11.0685 10.5816C10.7498 10.6754 10.5622 10.7316 10.4873 10.7879C10.356 10.9004 9.756 12.5504 9.47474 13.3567C9.13726 13.4504 8.79977 13.6379 8.556 14.0129C8.68726 13.9191 9.09977 13.8629 9.39977 13.8254C9.66223 13.8067 10.4685 14.2379 10.6747 15.0442C10.6747 15.0629 10.6747 15.0629 10.6747 15.0816C10.7122 15.3816 10.6185 15.6629 10.4685 15.8879ZM8.706 16.1129C8.87474 15.8691 8.856 15.4567 8.87474 15.3254C8.89349 15.1942 8.93103 14.9504 9.08103 14.9129C9.23103 14.8754 9.58726 14.9316 9.58726 15.1942C9.58726 15.4379 9.32474 15.4942 9.13726 15.6629C9.006 15.7942 8.74349 16.0754 8.706 16.1129ZM16.1873 12.5316C16.3747 11.5754 16.3935 10.7504 16.3373 10.0754C17.0685 11.0504 17.5185 12.2316 17.6498 13.4504C17.6685 13.6004 17.8185 13.7504 17.9685 13.9004C18.0998 14.0129 18.2498 14.1629 18.2498 14.2567C18.2498 14.6879 18.2122 15.1191 18.1373 15.5504C18.1185 15.6067 17.9498 15.7004 17.8185 15.7754C17.631 15.8691 17.4622 15.9629 17.4247 16.1129C17.0122 17.5567 16.131 18.8316 14.9498 19.7316C16.6935 17.9129 17.5373 14.9129 16.1873 12.5316ZM15.006 19.9004C16.2247 18.9629 17.1622 17.6504 17.5747 16.1691C17.5935 16.1129 17.7622 16.0191 17.8747 15.9442C18.0622 15.8504 18.2498 15.7379 18.2873 15.5879C18.3622 15.1567 18.3998 14.7067 18.3998 14.2567C18.3998 14.0879 18.231 13.9191 18.0622 13.7504C17.9685 13.6379 17.8185 13.5067 17.8185 13.4129C17.6685 12.0442 17.1247 10.7504 16.281 9.68164C15.906 7.43164 14.406 6.73793 14.3685 6.71913C14.406 6.77541 15.381 8.18164 14.706 9.83164C14.0122 11.5004 12.231 11.2379 12.081 11.2567C11.931 11.2567 11.3498 12.0067 10.6185 13.3942C10.5247 13.3567 10.131 13.2629 9.68097 13.3379C10.0185 12.4004 10.5247 11.0691 10.6185 10.9567C10.656 10.9191 10.9373 10.8442 11.1247 10.7879C11.481 10.6942 11.6498 10.6379 11.706 10.5629C11.7435 10.5067 11.931 10.0754 12.1185 9.62541C12.2873 9.62541 12.7185 9.58793 12.756 9.56913C12.7935 9.53164 13.1498 8.6129 13.1498 8.50039C13.1498 8.40667 12.4185 6.58793 12.1373 5.89416C12.2685 5.74416 12.3998 5.55665 12.531 5.35041C16.3747 5.7629 19.3747 9.02541 19.3747 12.9816C19.3747 16.0191 17.5935 18.6629 15.006 19.9004Z" fill="#1B314F"/>
<path d="M10.0185 9.77502C10.3748 9.36251 10.1873 8.59376 9.53105 8.46251C9.69979 8.06874 9.9435 7.28125 9.9435 7.28125C9.9435 7.28125 8.03105 10.2812 7.86225 10.3375C7.6935 10.3938 7.52476 9.73748 7.52476 9.73748C7.16853 11.1063 8.12476 11.2938 8.23727 10.8625C8.76225 10.7312 9.66225 10.1687 10.0185 9.77502Z" fill="#1B314F"/>
<path d="M8.38727 10.5066L9.36224 8.83789C9.36224 8.83789 9.92475 9.11915 9.6435 9.56915C9.28727 10.0941 8.38727 10.5066 8.38727 10.5066Z" fill="#FFD923"/>
<path d="M20.4435 18.232C20.1622 18.6071 19.8435 19.0008 19.4685 19.3758C21.8872 14.7258 19.581 10.4695 19.4872 10.3008C19.656 10.4695 19.8247 10.6571 19.9747 10.8258C21.831 12.8883 22.056 15.982 20.4435 18.232Z" fill="#D82122"/>
<path d="M22.6935 12.2513C21.8497 9.98257 20.6497 8.05131 18.006 6.30759C15.456 4.62007 12.7185 4.75132 12.5685 4.77007C12.5497 4.77007 12.531 4.77007 12.531 4.77007C12.6247 4.73257 12.7185 4.71382 12.8122 4.69507C13.3935 4.50757 14.1435 4.35757 14.8935 4.26382C16.881 3.98257 18.8872 4.65757 20.256 6.10131C20.2747 6.12005 20.2747 6.12005 20.2935 6.13879C21.8497 7.78879 22.656 9.85131 22.6935 12.2513Z" fill="#D82122"/>
<path d="M17.406 2.96992C14.6122 2.44492 12.8122 2.70742 11.5185 3.19492C11.481 3.04492 11.3498 2.74492 11.2373 2.50117C10.8435 2.96992 10.431 3.53242 10.1685 3.88867C9.45601 4.37617 9.15601 4.84492 9.15601 4.84492C9.56852 3.43867 10.7685 2.38867 12.231 2.12617C12.6435 2.05117 13.0935 2.01367 13.581 2.01367C14.8747 2.03242 16.1685 2.35117 17.406 2.96992Z" fill="#D82122"/>
<path d="M7.07474 6.56991C4.88101 6.49494 5.61225 3.94492 5.64975 3.79492C5.64975 3.81367 5.79977 5.80117 7.07474 6.56991Z" fill="#D82122"/>
<path d="M9.23102 1.97461C7.54348 2.98711 7.88102 5.40586 7.88102 5.40586C6.2685 2.94961 9.09976 2.03086 9.23102 1.97461Z" fill="#D82122"/>
<path d="M6.45602 7.24455C6.56853 7.33832 6.68105 7.50706 6.54979 7.75077C6.47476 7.88203 6.36231 7.86329 6.19351 7.78832C5.96853 7.6758 4.61853 6.88832 3.39978 6.08203C4.78728 6.56952 6.19351 7.09455 6.41853 7.20706C6.41853 7.20706 6.43728 7.2258 6.45602 7.24455Z" fill="white"/>
</svg>

<svg xmlns="http://www.w3.org/2000/svg" width="24" height="24" fill="none">
  <path fill="#fff"
    d="m5.969 13.095.6-4.519-5.213-3.619L6.119 6.57l1.125-1.725 4.106-2.55 9.056 4.987.469 7.613-4.032 5.606-3.187.488 1.65-3.02v-2.905l-1.2-2.27-1.219-.805-1.875 1.93v2.045L9.55 17.332l-1.857.225-.824.47-1.35-.432-.563-2.025 1.013-1.425v-1.05Z" />
  <path fill="#94A6C3"
    d="M14.293 4.919c-.993-.207-2.08-.15-2.08-.15s-.357 1.65-2.57 2.081c.02 0 2.925.994 4.65-1.931ZM15.194 19.881c1.2-.937 2.1-2.231 2.512-3.694.019-.056.188-.15.3-.225.188-.112.375-.206.413-.356a7.81 7.81 0 0 0 .112-1.331c0-.169-.169-.338-.337-.506-.132-.113-.263-.244-.263-.338A7.145 7.145 0 0 0 15.7 8.97l-.131.131a6.984 6.984 0 0 1 2.175 4.35c.018.15.168.3.318.45.131.112.281.281.281.356 0 .431-.037.863-.112 1.294-.019.075-.188.15-.319.225-.187.094-.356.188-.393.338a6.93 6.93 0 0 1-2.85 3.88c.243-.524 1.012-2.23 1.424-3.093l-.075-2.775-2.38-2.306-1.35.187-1.482 2.4s.694.881-.281 1.913c-.957 1.012-1.707 1.237-1.707 1.237l-.693-.375c.206-.262.618-.656.937-.919.544-.45 1.088-.487 1.088-.975.018-1.012-1.069-.73-1.069-.73l-.394.374-.168 1.388-.826 1.031-.093-.019-1.35-.3s.825-.431.956-.918c.131-.47-.263-2.025-.281-2.12.018.02.394.338.562.863.3-.825.694-1.612.806-1.687a91.35 91.35 0 0 1 1.632-.882l-.507 1.332.375-.207.9-2.212s.882-.431 1.538-.431c1.181-.019 2.925-1.463 2.137-4.05.226.094 4.126 2.044 4.8 5.869.507 2.943-1.162 5.7-3.974 7.293Z" />
  <path fill="#1B314F"
    d="M10.731 5.332c.431-.506.262-1.256.262-1.256L9.737 5.932c-.019 0 .45.02.994-.6ZM6.512 15.475l.15-.75s-.619 1.087-.675 1.237c-.056.169.038.469.282.45.243-.019.543-.375.543-.637 0-.338-.3-.3-.3-.3Z" />
  <path fill="#1B314F"
    d="M17.65 3.55s.937.038 1.912.15c-2.194-1.725-4.275-2.23-5.962-2.23-2.325 0-3.9.955-3.994 1.012l.731-1.163s-2.925-.281-3.956 2.813c-.262-.657-.506-1.613-.506-1.613S4.356 3.85 5.069 6.063C3.325 5.425.83 4.544.737 4.525c-.131-.018-.168.038-.168.038s-.038.056.075.15C.85 4.882 4.787 7.788 5.65 8.35c-.188.675-.188.994 0 1.313.262.431.281.656.243.975-.037.319-.374 3.075-.45 3.412-.074.338-.862 1.538-.824 1.894.037.356.525 1.875.956 2.044.318.112 1.106.356 1.631.356.187 0 .356-.037.431-.112.319-.282.413-.338.638-.338h.056c.094 0 .206.019.338.019.3 0 .693-.056.974-.319.413-.412 1.125-.975 1.35-1.237.282-.357.432-.844.357-1.332-.056-.45.187-.843.469-1.237.356-.469 1.012-1.313 1.012-1.313 1.294.975 2.1 2.457 2.1 4.107 0 2.925-2.55 5.287-5.7 5.287-.488 0-.956-.056-1.425-.169 1.444.507 2.663.675 3.656.675 2.119 0 3.244-.768 3.244-.768s-.394.506-1.031 1.087h.018c3.507-.487 5.213-3.375 5.213-3.375s-.131.938-.3 1.575c4.669-3.506 3.881-7.894 3.862-8.044.038.057.507.62.75.92.75-7.726-5.568-10.22-5.568-10.22Zm-7.181 12.338c-.075.094-.394.375-.62.581-.224.206-.468.413-.656.6-.074.075-.224.113-.45.113h-.562c.281-.375 1.106-1.238 1.388-1.425.337-.225.506-.45.3-.844-.207-.394-.75-.3-.75-.3s.318-.131.6-.131c-.357-.094-.807 0-1.013.206-.225.206-.187.937-.281 1.406-.094.488-.413.731-.9 1.181-.263.244-.45.32-.6.32a6.463 6.463 0 0 1-.956-.245c-.188-.243-.47-1.05-.544-1.387.056-.188.281-.581.394-.806.224-.432.356-.675.393-.9.075-.32.319-2.288.413-3.113.244.319.581.844.506 1.181.544-.768.15-1.518-.038-1.818-.168-.3-.393-.9-.206-1.538.188-.637.863-2.4.863-2.4s.225.394.543.319c.32-.075 2.888-3.938 2.888-3.938s.694 1.52-.037 2.625c-.75 1.107-1.482 1.313-1.482 1.313s1.031.187 1.988-.506c.393.918.768 1.875.787 2.006-.056.131-.806 1.931-.881 2.044-.037.037-.3.112-.487.15-.32.093-.507.15-.582.206-.131.112-.731 1.762-1.012 2.569a1.548 1.548 0 0 0-.919.656c.131-.094.544-.15.844-.188.262-.018 1.069.413 1.275 1.22v.037c.037.3-.057.58-.207.806Zm-1.763.225c.169-.244.15-.656.169-.788.018-.13.056-.375.206-.412.15-.038.506.019.506.281 0 .244-.262.3-.45.469-.131.131-.394.412-.431.45Zm7.481-3.581a8.902 8.902 0 0 0 .15-2.457 6.872 6.872 0 0 1 1.313 3.375c.019.15.169.3.319.45.13.113.28.263.28.357 0 .43-.037.862-.112 1.293-.018.057-.187.15-.319.225-.187.094-.356.188-.393.338a6.981 6.981 0 0 1-2.475 3.619c1.744-1.82 2.587-4.82 1.237-7.2ZM15.006 19.9c1.219-.937 2.156-2.25 2.569-3.73.018-.057.187-.15.3-.226.187-.094.375-.206.412-.356a7.82 7.82 0 0 0 .113-1.331c0-.17-.169-.338-.338-.507-.094-.112-.244-.243-.244-.337a7.326 7.326 0 0 0-1.537-3.731c-.375-2.25-1.875-2.944-1.912-2.963.037.056 1.012 1.463.337 3.113-.694 1.668-2.475 1.406-2.625 1.425-.15 0-.731.75-1.463 2.137-.093-.037-.487-.131-.937-.056.338-.938.844-2.269.938-2.381.037-.038.318-.113.506-.17.356-.093.525-.15.581-.224.037-.056.225-.488.412-.938.17 0 .6-.037.638-.056.037-.037.394-.956.394-1.069 0-.093-.732-1.912-1.013-2.606.131-.15.263-.337.394-.544a7.68 7.68 0 0 1 6.844 7.632 7.677 7.677 0 0 1-4.369 6.918Z" />
  <path fill="#1B314F"
    d="M10.018 9.775c.357-.412.17-1.181-.487-1.312.169-.394.412-1.182.412-1.182s-1.912 3-2.08 3.057c-.17.056-.338-.6-.338-.6-.356 1.368.6 1.556.712 1.125.525-.132 1.425-.694 1.781-1.088Z" />
  <path fill="#FFD923" d="m8.387 10.507.975-1.67s.563.282.281.732c-.356.525-1.256.938-1.256.938Z" />
  <path fill="#D82122"
    d="M20.444 18.232c-.282.375-.6.769-.976 1.144 2.42-4.65.113-8.907.02-9.075.168.168.337.356.487.525 1.856 2.062 2.081 5.156.468 7.406ZM22.694 12.251c-.844-2.268-2.044-4.2-4.688-5.943-2.55-1.688-5.287-1.557-5.438-1.538h-.037c.094-.037.188-.056.281-.075.582-.187 1.332-.337 2.082-.431 1.987-.281 3.993.394 5.362 1.837l.038.038c1.556 1.65 2.362 3.712 2.4 6.112ZM17.406 2.97c-2.794-.525-4.594-.263-5.887.225-.038-.15-.17-.45-.282-.694-.393.469-.806 1.031-1.069 1.388-.712.487-1.012.956-1.012.956.413-1.406 1.612-2.456 3.075-2.719a7.56 7.56 0 0 1 1.35-.112 8.807 8.807 0 0 1 3.825.956ZM7.075 6.57C4.88 6.495 5.612 3.945 5.65 3.795c0 .019.15 2.006 1.425 2.775ZM9.231 1.975c-1.688 1.012-1.35 3.43-1.35 3.43C6.269 2.95 9.1 2.032 9.231 1.976Z" />
  <path fill="#fff"
    d="M6.456 7.245c.113.093.225.262.094.506-.075.131-.188.112-.356.037-.225-.112-1.575-.9-2.794-1.706 1.387.488 2.794 1.013 3.019 1.125l.037.038Z" />
</svg>
